X: 20104
Q: "Slow and softly."
M: 6/8
L: 1/8
K: E
[|\
e3- edc | B3- BAG |
e3- edc | B3- BAG | F2F (FG)F | B3- B2z |]|\
=G3- GFE | ^A3 AAB | c3- cdc | B3 z2z |\
f3- fdB |
=G3- GFE | c3- cdc | B3- B2z |\
e3- edc | B3- BGE | (DcB) ({B}AG)F  | E3 E2z |]


